X:1
T:Vero non e
T:Vero non e
T:Giovanni Brachrogge
T:Source : Madrigaletti a 3 voci---Libro I---Copenhagen---H.Waldkirch---1619. Editor : André Vierendeels (26/03/14).
T:Notes : Original clefs : C1, C1, C4 Editorial accidentals above the staff
C:Giovanni Brachrogge
%%score [ 1 2 3 ]
L:1/8
Q:1/4=76
M:2/2
K:C
V:1 treble nm="Soprano 1" snm="S 1"
V:2 treble nm="Soprano 2" snm="S 2"
V:3 treble-8 nm="Tenor" snm="T"
V:1
 d6 Bc | d2 c2 B2 A2 | B2 B2 G2 A2 | B2 d2 AGAB | dcBB A4 | B2 e4 dc | B2 A2 A2 ^G2 | A4 z2 d2 | %8
w: Ve- ro non|è, che l'a- ni-|ma mi par- *|ta, ve- ro non è, che|l'a- ni- ma mi par-|ta, a- ni- ma|mia, il par- ti-|re, par-|
w: ||||||||
 ^cA d4 c2 | d4 z2 GG | c4 B2 A2 |"^-natural""^#" ^G4 G2 GG | A3 B c2 d2- | d2 B2 A4 |1 %14
w: ti- * * *|re, e mi|fac- cia mo-|ri- re, e mi|fac- * * cia|* mo- ri-|
w: ||||||
[M:2/4] G4 ::2[M:2/2] G2 d3 d c2 || B2 B2 A4 | A2 DE ^F2 EF | G2 AB c2 BA | B2 A2 A2 G2 | %20
w: re,|re, ch'an- zi piu|bel- la vi-|ta, mi fa vi- ver in|te, mi fa vi- ver in|te la mia par-|
w: |2.ta, * * *|||||
 d4 B2 Bc | d2 ^FG A4- | A2 A2 B2 d2 | d2 ^c2 d4 | z2 d3 d c2 | B2 B2 A4 | G4 z2 cd | e2 dc d2 e2 | %28
w: ti- ta, mi fa|vi- ver in te,|* la mia par-|ti- * ta,|ch'an- zi piu|bel- la vi-|ta, mi fa|vi- ver in te la|
w: ||||||||
 d8- | d8- | d2 B2 A4 :| G8 |] %32
w: mia||* par- ti-|ta|
w: ||||
V:2
 z4 G4- | G2 EF G2 F2 | E3 D E2 ^F2 | G4 ^F3 G | A2 G4 ^F2 | G2 G4 ^GA | ^G2 c2 B4 | A2 A4 GF | %8
w: ro|* non è, che l'a-|ni- ma mi par-|ta, mi par-|ta, * *|a- ni- ma mia'il-|par- ti- re,|l'a- ni- ma mia'il|
w: ||||||||
 E2 F2 E4 | D2 DD E4 | E2 G2 D4 | E2 BB c4 | c6 B2 | A2 G4 ^F2 |1[M:2/4] G4- ::2[M:2/2] G8 || %16
w: par- ti- re,|e mi fac- cia|mo- ri- re,|e mi fac- cia|mo- ri-|re, * *|(re,)|mi|
w: |||||||2.ta,|
 z2 DE ^F2 ED | A2 A3 A A2 | B2 G2 ^F G2 F | G2 d3 d c2 | B2 G2 d4- | d4 d2 DE | ^F2 EF G2 A2- | %23
w: fa vi- ver in te,|ch'an- zi piu bel-|la vi- ta, * *|ch'an- zi piu bel-|la vi- ta,|* mi fa vi-|ver in te, ch'an- zi|
w: |||||||
 AA G2 ^F2 D2 | A4 A4 | z2 d3 d c2 | B2 cB A2 G2 | z2 AA G2 EE | ^F4 G4 | ^F>G A2 B>c B2 | %30
w: * piu bel- la vi-|ta, ch'an-|zi piu bel|la vi- _ ta, mi|fa vi- ver in te|la mia|par- _ ti- * * *|
w: |||||||
 A2 G4 ^F2 :| G8 |] %32
w: ta. * *|”¨‹Ve-|
w: ||
V:3
 z8 | z8 | z4 z2 d2 | GABc d3 E | ^F2 G2 D4 | G2 c4 BA |"^-natural" e4 z4 | z2 F4 ED | A4 z4 | %9
w: ||non|è, che l'a- ni- ma mi|par- ta, a-|ni- ma mia, a-|ni-|ma mia, e|mi|
w: |||||||||
 z2 GG c4 | E3 F G2 F2 | E6 EE | F3 G A2 Bc | d8 |1[M:2/4] G4 ::2[M:2/2] G2 G3 G A2 || B2 G2 d4 | %17
w: fac- cia mo-|ri- re, e *|mi fac- cia|mo- ri- re, re, *||ch'an-|zi piu bel- la|vi- ta, ch'an-|
w: ||||||2.ta, * * *||
 d2 d3 d c2 | B2 B2 A4 | G2 DE ^F2 EF | G4 z2 GA | B2 AG d4- | d2 c2 B2 ^F2 | A4 D4 | %24
w: zi piu bel- la|vi- ta, mi|fa vi- ver in te, mi|fa vi- ver|in te, la mia|* par- ti- ta,|mi fa|
w: |||||||
 z2 DE ^F2 EF | G4 z2 AA | B2 AB c4- | c2 A2 B2 c2 | D>E ^F>D G>A B>c | d>e ^f>d g>A B>c | d8 :| %31
w: vi- ver in te, mi|fa vi- ver|in te, la mia|* par- ti- ta.||||
w: |||||||
 G8 |] %32
w: |
w: |

